!!!ONB: MCCC : IRS0161_01 : Extracted Monophonic Melody
!!!COM: Schumann, Robert
!!!OPR: Violin Sonata No.1
!!!OMV: 1
!!!SCT: Op.105
!!!ODT: 1851///
**kern
*staff1
=1
*clefG2
*k[]
*C:
*M6/8
4.c
4f
8e
=2
4e
8e-[
8e-]
8f
8e
=3
4e
16.e-
32e
8e-
8d
8e-
=4
4b
8g#
4e
8B
=5
4d
8c[
8c]
8B
8A
=6
2.f
=7
4.e
4f
8f
=8
2.e[
=9
4.e]
4.r
=10
2.r
=11
4.g
4cc
8b-
=12
4b-
[8a
8a]
8cc
8b-
=13
4b-
16.a
32b-
8a
8g#
8a
=14
4ff
8dd
4b
8f
=15
4a
8g#[
8g#]
8f#
8e
=16
2.cc
=17
4.b[
4b]
8cc
=18
4.b
4.b
=19
4.b
4ee
8b
=20
4.cc
4ff
8cc
=21
4.gg#
4ccc
8gg#
=22
4.aa
4eee
8aa
=23
8.fff
16ddd
16bb-
16ff
16dd
16ff
16bb-
16ddd
16.fff
32fff
=24
4.fff
4.gg#
=25
8.aa
16ff
16cc
16a
8.g
16a
16ee
16gg
=26
8.ff
16dd
16a
16f
8.e
16g#
16b
16ee
=27
4.a
[4.a
=28
4.a_
4a]
8e
=29
4.a
8e
8f#
8g#
=30
8b
8a
8g
4f#
8g
=31
4.e
4.ee
=32
16a
16a
16b
16b
16cc
16cc
4.ee
=33
16b
16b
16cc
16cc
16dd
16dd
4.ee
=34
16cc#
16cc#
16ee
16ee
16ff
16ff
4.gg
=35
4ff
8a
4dd
8cc
=36
4cc
8b[
8b]
8dd
8cc
=37
4cc
8b
4a
8g
=38
4.gg
4.aa
=39
4.dd
8r
8c
8d[
=40
8d]
8B
8d[
8d]
8c
8d[
=41
8d]
8B
8d[
8d]
8G
8g
=42
4.g
4.aa
=43
4.dd
4.ee[
=44
4.ee]
4dd
8a
=45
4cc
8b
4.ee[
=46
4.ee]
4dd
8a
=47
4cc
8b
4.gg
=48
2.gg[
=49
4.gg]
4b
8cc
=50
4ff
8ee
4dd
8ee
=51
4dd
8cc
4.r
=52
4cc
8a
4.r
=53
4a
8f
4cc#
8dd
=54
4ff
8ee
8dd
8ff
8ee
=55
4dd
8cc
16c
16e
16g
16b-
16cc
16ee
=56
4.gg
4ff
8a
=57
4cc
8b
16c#
16e
16g
16a
16cc#
16ee
=58
4gg
8a
4ff
8a
=59
4ee
8dd
4.cc
=60
4.cc[
4cc]
8b
=61
4.cc
4.c
=62
4.c[
4c]
8B
=63
4.c[
4c]
8B
=64
4.c[
4c]
8B
=65
4.c
4f
8e
=66
4e
8e-[
8e-]
8f
8e
=67
4e
16.e-
32e
8e-
8d
8e-
=68
4b
8g#
4e
8B
=69
4d
8c[
8c]
8B
8A
=70
2.f
=71
4.e
4f
8f
=72
2.e[
=73
4.e]
4.r
=74
2.r
=75
4.g
4cc
8b-
=76
4b-
[8a
8a]
8cc
8b-
=77
4b-
16.a
32b-
8a
8g#
8a
=78
4ff
8dd
4b
8f
=79
4a
8g#[
8g#]
8f#
8e
=80
2.cc
=81
4.b[
4b]
8cc
=82
4.b
4.b
=83
4.b
4ee
8b
=84
4.cc
4ff
8cc
=85
4.gg#
4ccc
8gg#
=86
4.aa
4eee
8aa
=87
8.fff
16ddd
16bb-
16ff
16dd
16ff
16bb-
16ddd
16.fff
32fff
=88
4.fff
4.gg#
=89
8.aa
16ff
16cc
16a
8.g
16a
16ee
16gg
=90
8.ff
16dd
16a
16f
8.e
16g#
16b
16ee
=91
4.a
[4.a
=92
4.a_
4a]
8e
=93
4.a
8e
8f#
8g#
=94
8b
8a
8g
4f#
8g
=95
4.e
4.ee
=96
16a
16a
16b
16b
16cc
16cc
4.ee
=97
16b
16b
16cc
16cc
16dd
16dd
4.ee
=98
16cc#
16cc#
16ee
16ee
16ff
16ff
4.gg
=99
4ff
8a
4dd
8cc
=100
4cc
8b[
8b]
8dd
8cc
=101
4cc
8b
4a
8g
=102
4.gg
4.aa
=103
4.dd
8r
8c
8d[
=104
8d]
8B
8d[
8d]
8c
8d[
=105
8d]
8B
8d[
8d]
8G
8g
=106
4.g
4.aa
=107
4.dd
4.ee[
=108
4.ee]
4dd
8a
=109
4cc
8b
4.ee[
=110
4.ee]
4dd
8a
=111
4cc
8b
4.gg
=112
2.gg[
=113
4.gg]
4b
8cc
=114
4ff
8ee
4dd
8ee
=115
4dd
8cc
4.r
=116
4cc
8a
4.r
=117
4a
8f
4cc#
8dd
=118
4ff
8ee
8dd
8ff
8ee
=119
4dd
8cc
16c
16e
16g
16b-
16cc
16ee
=120
4.gg
4ff
8a
=121
4cc
8b
16c#
16e
16g
16a
16cc#
16ee
=122
4gg
8a
4ff
8a
=123
4ee
8dd
4.cc
=124
4.cc[
4cc]
8b
=125
4.cc
4.c
=126
4.c[
4c]
8B
=127
4.c[
4c]
8B
=128
4.c[
4c]
8B
=129
4.c
4f
8e
=130
4e
8e-[
8e-]
8f
8e
=131
4e
16.e-
32e
8e-
8d
8e-
=132
4b
8g#
4.e
=133
4B-
8A
4.r
=134
4B-
8A
4.r
=135
[4.a
8a]
8dd
8cc[
=136
8cc]
8a
8b-[
8b-]
8ee-
8dd[
=137
8dd]
8b
8cc[
8cc]
8ff
8ee-[
=138
8ee-]
8cc#
8dd[
8dd]
8gg
8ff
=139
4.ee-
4.e-
=140
4d
8c#
4c
8B
=141
4B-
8c
4.d
=142
16b-
16g
16d
16B-
16A
16G
16ee-
16b-
16dd
16b-
16cc#
16b-
=143
16dd
16d
16a
16d
16b
16d
16cc
16c
16g
16c
16a
16c
=144
16b-
16B-
16f
16B-
16g
16B-
16a
16e
16c#
16A
16c#
16e
=145
4.f
4.r
=146
16ee
16cc
16a
16e
16c
16A
16aa
16a
16gg
16a
16ff#
16a
=147
4.gg
4.gg
=148
16ff
16cc
16a
16f
16c
16A
4.cc[
=149
4.cc]
8dd
8ff
8ee
=150
16ff
16dd
16a
16f
16d
16A
[4.aa
=151
4.aa]
8bb-
8ddd
8ccc#
=152
4.dd
4.f
=153
4.f
16.f
32a
8g
8f
=154
4.dd
4.f
=155
4.g#
4.g
=156
4.ee
4.g
=157
4.g
16.g
32b
8a
8g
=158
4.ee
4.g
=159
4.b-
4.a
=160
2.r
=161
4.B[
8B]
8e
8d
=162
4.d
4.c
=163
[4.a
8a]
8dd
8cc
=164
4.b-[
8b-]
8ee
8dd
=165
4.dd
4.cc#
=166
2.r
=167
4.d
8d
8g
8f
=168
4.e
4a
8e
=169
4.f
4b-
8f#
=170
4g
8cc[
4cc]
8g#
=171
4a
8dd[
4dd]
8a
=172
4.b-
4ee
8b
=173
4ee
8b
4ee
8b
=174
2.cc
=175
4.ff[
4ff]
8ee
=176
2.ee
=177
4.ee-
4.c[
=178
2.c]
=179
4.f[
4f]
8e
=180
4e
8e-[
8e-]
8f
8e
=181
4e
16.e-
32e
8e-
8d
8e-
=182
4b
8g#
4e
8B
=183
4d
8c[
8c]
8B
8A
=184
2.f
=185
4.e[
4e]
8f
=186
2.e[
=187
4.e]
4.r
=188
2.r
=189
4.g
4cc
8b-
=190
4b-
[8a
8a]
8cc
8b-
=191
4b-
16.a
32b-
8a
8g#
8a
=192
4ff
8dd
4b
8f
=193
4a
8g#[
8g#]
8f#
8e
=194
2.cc
=195
4.b[
4b]
8cc
=196
4.b
4.b
=197
4.b
4ee
8b
=198
4.cc
4ff
8cc
=199
4.gg#
4ccc
8gg#
=200
4.aa
4eee
8aa
=201
8.fff
16ddd
16bb-
16ff
16dd
16ff
16bb-
16ddd
16.fff
32fff
=202
4.fff
4.gg#
=203
8.aa
16ff
16cc
16a
8.g
16a
16ee
16gg
=204
8.ff
16dd
16a
16f
8.e
16g#
16b
16ee
=205
4.a
[4.a
=206
4.a_
4a]
8e
=207
4.a
8e
8f#
8g#
=208
8b
8a
8g
4f#
8g
=209
4.e
4.ee
=210
16a
16a
16b
16b
16cc
16cc
4.ee
=211
16b
16b
16cc
16cc
16dd
16dd
4.ee
=212
16cc#
16cc#
16dd
16dd
16ee
16ee
4ff#
8cc#
=213
4dd
8f#
4b
8a
=214
4a
8g#[
8g#]
8b
8a
=215
4a
8g#
4f#
8e
=216
4.ee
4.ff#
=217
4.b
8r
8A
8B[
=218
8B]
8G#
8B[
8B]
8A
8B[
=219
8B]
8G#
8B[
8B]
8e
8ee
=220
4.ee
4.ff#
=221
4.b
4.cc#[
=222
4.cc#]
4b
8f#
=223
4a
8g#
4.cc#[
=224
4.cc#]
4b
8f#
=225
4a
8g#
4.ee
=226
2.ee[
=227
4.ee]
4g#
8a
=228
4dd
8cc#
4b
8cc#
=229
4b
8a
4.r
=230
4a
8f#
4.r
=231
4f#
8d
4b-
8b
=232
4dd
8cc#
8b
8dd
8cc#
=233
4b
8a
16A
16c#
16e
16g
16a
16cc#
=234
4.ee
4dd
8f#
=235
4a
8g#
16B-
16c#
16e
16f#
16b-
16cc#
=236
4ee
8f#
4dd
8f#
=237
4cc#
8b
[4.a
=238
4.a_
4a]
8g#
=239
4.a
[4.a
=240
4.a_
4a]
8g#
=241
4.a
4.r
=242
2.r
=243
4.c
4f
8e
=244
4.e
4.d#
=245
2.r
=246
2.r
=247
4.e
4cc
8b
=248
4.b
4.a
=249
4r
8c
4.a
=250
2.a
=251
4.r
4.a
=252
2.a
=253
16e-
16e
16g
16g#
16a#
16b
16f
16g#
16a#
16b
16dd
16ff
=254
16ee
16cc
16b
16a
16g#
16a
16cc
16a
16g
16f
16e
16e-
=255
16e-
16e
16g
16g#
16a#
16b
16f
16g#
16a#
16b
16dd
16ff
=256
16ee
16cc
16b
16a
16g#
16a
16cc
16a
16g
16f
16e
16d#
=257
8.e
16g#
16b
16ee
8.gg#
16ee
16b
16g#
=258
8.e
16a
16cc
16ee
8.bb
16gg#
16ee
16b
=259
8.eee
16ccc#
16aa
16ee
16c#
16A
16f
16A
16e
16A
=260
16d
16A
16b-
16A
16a
16A
16g#
16e
16cc
16e
16b
16e
=261
8.eee
16ccc#
16aa
16ee
16cc#
16a
16ff
16a
16ee
16a
=262
16dd
16a
16bb-
16a
16aa
16a
16gg#
16ee
16ccc
16ee
16bb
16ee
=263
16eee
16ee
16eee
16ee
16eee
16ee
16gg
16a
16gg
16a
16gg
16a
=264
16ff#
16a
16ff#
16a
16ff#
16a
16ff
16a
16ff
16a
16ff
16a
=265
16ee
16a
16ee
16a
16ee
16a
16ee
16a
16ee
16a
16ee
16a
=266
16dd
16a
16dd
16a
16dd
16a
16dd
16d
16dd
16d
16dd
16d
=267
16cc#
16a
16cc#
16a
16cc#
16a
16cc#
16a
16ee
16a
16dd
16a
=268
16cc#
16a
16cc#
16a
16cc#
16a
16cc#
16a
16ee
16a
16dd
16a
=269
2.cc#
=270
2.cc
=271
2.ff
=272
4.r
4.gg#
=273
4.r
4.aa
==
*-
